X:1
T:Title
%%score { ( 1 2 ) | ( 3 4 ) }
L:1/8
M:4/4
K:G
V:1 treble nm="Grand Piano"
V:2 treble 
V:3 treble 
V:4 treble 
V:1
 z4 z2[Q:1/4=100] z z/ A/ | B2 G2 [EA]>[EG] [EG]>E | D6 G>B | d2 B>A G2 B2 |[M:3/4] [FA]6 | %5
[M:1/4] z z/ A/ |[M:4/4] B2 G2 [EA]>[EG] [EG]>E | D6 G>B | d2 B>G [FA] [FB]3 |[M:3/4] G6 | %10
[M:1/4] B>c |[M:4/4] d6 z2 | G6 z2 | d2 d>d c2 B2 |[M:3/4] [FA]6 |[M:1/4] B>c | %16
[M:4/4] d2 d2 B2 B>[FA] |[M:9/8] [EG]2 [=FG]- [FG] [EG]2- [EG][EG]>[Ge] | %18
[M:4/4] d2 B>G [FA] [FB]3 |[M:3/4] G6 |] %20
V:2
 z4 z2 G2 | x8 | x8 | x8 |[M:3/4] x6 |[M:1/4] G2 |[M:4/4] x8 | x8 | x8 |[M:3/4] x6 |[M:1/4] x2 | %11
[M:4/4] z2 G>F G2 B>A | z2 D>E D2 B>c | x8 |[M:3/4] x6 |[M:1/4] x2 |[M:4/4] x8 |[M:9/8] x9 | %18
[M:4/4] x8 |[M:3/4] x6 |] %20
V:3
 z4 z2 B,>C | [G,DG]2[K:bass] [G,B,D]2 [C,C]>[C,C] [C,C]>[C,G,C] | %2
 [G,B,]6[K:treble] [G,B,D]>[G,DG] | [G,B,G]2 [G,DG]>[G,CD] [G,B,D]2 [G,DG]2 | %4
[M:3/4][K:bass] [D,D]6 |[M:1/4] B,>[K:treble]C | %6
[M:4/4] [G,DG]2[K:bass] [G,B,D]2 [C,C]>[C,C] [C,C]>[C,G,C] | [G,B,]6[K:treble] [G,B,D]>[G,DG] | %8
 [G,B,G]2 [G,DG]>[G,B,D][K:bass] [D,C] [D,D]3 |[M:3/4] [G,B,]6 |[M:1/4][K:treble] [G,DG]>[G,A,G] | %11
[M:4/4] [G,B,G]2 [G,B,]>[A,C] [B,D]2 D>C | B,2 [G,B,]>[G,C] [G,B,]2 [G,DG]>[G,A,G] | %13
 [G,B,G]2 [G,B,G]>[G,B,G] [A,DF]2 [G,DG]2 |[M:3/4] [D,D]6 |[M:1/4] D3/2 z/ | %16
[M:4/4] [G,B,G]2 [G,B,G]2 [G,DG]2 [G,DG]>[K:bass][D,C] | %17
[M:9/8] [E,B,]2 [D,B,]- [D,B,] [C,C]2- [C,C][C,C]>[C,C] | %18
[M:4/4][K:treble] [G,B,G]2 [G,DG]>[K:bass][G,B,D] [D,C] [D,D]3 |[M:3/4] [G,B,]6 |] %20
V:4
 z4 z2 G,2 | x2[K:bass] x6 | x6[K:treble] x2 | x8 |[M:3/4][K:bass] x6 |[M:1/4] G,2[K:treble] | %6
[M:4/4] x2[K:bass] x6 | x6[K:treble] x2 | x4[K:bass] x4 |[M:3/4] x6 |[M:1/4][K:treble] x2 | %11
[M:4/4] x8 | x8 | x8 |[M:3/4] x6 |[M:1/4] [G,G]->[G,A,G] |[M:4/4] x15/2[K:bass] x/ |[M:9/8] x9 | %18
[M:4/4][K:treble] x7/2[K:bass] x9/2 |[M:3/4] x6 |] %20

